src/assets/mission_TAB_m.svg

<svg width="187" height="55" viewBox="0 0 187 55" fill="none" xmlns="http://www.w3.org/2000/svg">
<rect x="1.2976" y="53.6563" width="52.0552" height="184.495" rx="19" transform="rotate(-90.1818 1.2976 53.6563)" fill="#D3A7E0" stroke="#373737" stroke-width="2"/>
<path d="M37.777 38.3696L34.8718 28.2566L32.3089 38.4533L26.0596 38.5491L31.5833 16.5869L37.8325 16.4912L40.5466 27.3884L48.7688 16.3236L55.018 16.2279L49.4944 38.1901L43.2451 38.2858L45.808 28.0891L37.777 38.3696ZM65.7418 16.0637L60.2181 38.0258L53.9688 38.1216L59.4925 16.1594L65.7418 16.0637ZM72.6657 30.0218C67.458 30.1015 65.4533 27.7674 66.6515 23.0193C67.8198 18.355 71.0078 15.983 76.2155 15.9032L86.3706 15.7477L84.7946 22.0226L74.6396 22.1781C73.598 22.1941 73.0184 22.4425 72.9008 22.9236C72.7532 23.4884 73.2001 23.7628 74.2417 23.7469L78.9286 23.6751C84.1364 23.5953 86.1561 25.8876 84.9878 30.5518C83.7895 35.2999 80.5866 37.7138 75.3788 37.7936L65.2238 37.9492L66.7997 31.6743L76.9548 31.5187C77.9963 31.5028 78.5909 31.2124 78.7385 30.6476C78.8562 30.1665 78.3942 29.934 77.3527 29.95L72.6657 30.0218ZM93.857 29.6972C88.6493 29.7769 86.6445 27.4428 87.8428 22.6947C89.0111 18.0304 92.1991 15.6584 97.4068 15.5786L107.562 15.4231L105.986 21.698L95.8309 21.8535C94.7893 21.8695 94.2097 22.118 94.0921 22.599C93.9445 23.1638 94.3914 23.4382 95.433 23.4223L100.12 23.3505C105.328 23.2707 107.347 25.563 106.179 30.2273C104.981 34.9753 101.778 37.3892 96.5701 37.469L86.415 37.6246L87.991 31.3497L98.1461 31.1941C99.1876 31.1782 99.7822 30.8878 99.9298 30.323C100.047 29.8419 99.5855 29.6094 98.544 29.6254L93.857 29.6972ZM118.879 15.2497L113.356 37.2119L107.106 37.3076L112.63 15.3455L118.879 15.2497ZM127.048 37.0022C124.027 37.0484 121.72 36.016 120.125 33.9047C118.53 31.7935 118.115 29.2214 118.881 26.1885C119.637 23.1557 121.352 20.551 124.028 18.3744C126.703 16.1977 129.551 15.0863 132.571 15.04C135.592 14.9937 137.9 16.0262 139.495 18.1375C141.09 20.2487 141.509 22.8207 140.754 25.8535C139.987 28.8864 138.267 31.4912 135.591 33.6678C132.916 35.8445 130.068 36.9559 127.048 37.0022ZM128.624 30.7273C129.915 30.7075 131.132 30.2305 132.274 29.2962C133.427 28.3618 134.17 27.2461 134.504 25.9492C134.828 24.6524 134.645 23.5509 133.954 22.6447C133.273 21.7384 132.287 21.2951 130.995 21.3149C129.704 21.3347 128.482 21.8118 127.329 22.7462C126.187 23.6805 125.454 24.796 125.13 26.0928C124.796 27.3897 124.969 28.4913 125.65 29.3977C126.341 30.3039 127.332 30.7471 128.624 30.7273ZM149.759 25.7155L146.989 36.6967L140.74 36.7925L146.264 14.8303L152.513 14.7346L157.57 25.5959L160.324 14.6149L166.574 14.5192L161.05 36.4814L154.801 36.5771L149.759 25.7155Z" fill="#F6E9FA"/>
</svg>

<svg width="187" height="55" fill="none" xmlns="http://www.w3.org/2000/svg"><rect x="1.298" y="53.656" width="52.055" height="184.495" rx="19" transform="rotate(-90.182 1.298 53.656)" fill="#D3A7E0" stroke="#373737" stroke-width="2"/><path d="m37.777 38.37-2.905-10.113-2.563 10.196-6.25.096 5.524-21.962 6.25-.096 2.714 10.897 8.222-11.064 6.249-.096-5.524 21.962-6.249.096 2.563-10.197-8.031 10.28zm27.965-22.306-5.524 21.962-6.25.096 5.524-21.963 6.25-.095zm6.924 13.958c-5.208.08-7.213-2.255-6.014-7.003 1.168-4.664 4.356-7.036 9.564-7.116l10.155-.155-1.576 6.275-10.155.155c-1.042.016-1.622.264-1.74.746-.147.564.3.839 1.342.823l4.687-.072c5.207-.08 7.227 2.213 6.059 6.877-1.198 4.748-4.401 7.162-9.61 7.242l-10.154.155 1.576-6.275 10.155-.155c1.041-.016 1.636-.307 1.784-.871.117-.482-.345-.714-1.386-.698l-4.687.072zm21.191-.325c-5.208.08-7.213-2.254-6.014-7.002 1.168-4.665 4.356-7.037 9.564-7.116l10.155-.156-1.576 6.275-10.155.155c-1.042.016-1.621.265-1.739.746-.147.565.3.84 1.341.823l4.687-.072c5.208-.08 7.227 2.213 6.059 6.877-1.198 4.748-4.401 7.162-9.609 7.242l-10.155.156 1.576-6.275 10.155-.156c1.042-.016 1.636-.306 1.784-.871.117-.481-.345-.714-1.386-.698l-4.687.072zm25.022-14.447-5.523 21.962-6.25.096 5.524-21.962 6.249-.096zm8.169 21.752c-3.021.046-5.328-.986-6.923-3.097-1.595-2.111-2.01-4.684-1.244-7.716.756-3.033 2.471-5.638 5.147-7.815 2.675-2.176 5.523-3.288 8.543-3.334 3.021-.046 5.329.986 6.924 3.098 1.595 2.11 2.014 4.683 1.259 7.715-.767 3.033-2.487 5.638-5.163 7.815-2.675 2.176-5.523 3.288-8.543 3.334zm1.576-6.275c1.291-.02 2.508-.497 3.65-1.43 1.153-.935 1.896-2.05 2.23-3.348.324-1.297.141-2.398-.55-3.304-.681-.907-1.667-1.35-2.959-1.33-1.291.02-2.513.497-3.666 1.431-1.142.934-1.875 2.05-2.199 3.347-.334 1.297-.161 2.398.52 3.305.691.906 1.682 1.35 2.974 1.33zm21.135-5.012-2.77 10.982-6.249.095 5.524-21.962 6.249-.095 5.057 10.86 2.754-10.98 6.25-.096-5.524 21.962-6.249.096-5.042-10.861z" fill="#F6E9FA"/></svg>
